tools/download-figma-icons/icons/outlined-medium/rocket.svg

<svg width="25" height="24" viewBox="0 0 25 24" fill="none" xmlns="http://www.w3.org/2000/svg">
<path fill-rule="evenodd" clip-rule="evenodd" d="M13.913 16.6158C14.0105 16.6158 14.1087 16.6345 14.2002 16.6735C14.4005 16.756 14.5557 16.9225 14.624 17.1288L15.4534 19.6149L16.7164 18.3512C17.4986 17.569 17.8728 16.447 17.7168 15.3498L17.6156 14.6426C17.5833 14.4094 17.6613 14.1731 17.8286 14.0066C22.2601 9.57432 22.5309 3.48231 22.4919 1.51064C20.5082 1.47915 14.4282 1.74313 9.99665 6.1747C9.8309 6.34195 9.59841 6.42144 9.36067 6.38695L8.6527 6.28645C7.55324 6.12746 6.43429 6.50469 5.65132 7.28691L4.38837 8.54986L6.87452 9.37932C7.08076 9.44682 7.24651 9.60206 7.32975 9.80306C7.413 10.0033 7.40475 10.2305 7.308 10.4248C7.02227 10.9993 6.36004 12.6544 6.52054 13.7621L10.2411 17.4827C11.3496 17.641 13.0033 16.9803 13.5785 16.6945C13.6827 16.642 13.7982 16.6158 13.913 16.6158ZM15.1249 21.7539C15.0679 21.7539 15.0102 21.7471 14.9532 21.7336C14.6997 21.6736 14.4957 21.4869 14.414 21.2409L13.4608 18.3813C12.5271 18.748 10.9566 19.222 9.68917 18.9017C9.55717 18.8687 9.43643 18.8005 9.34043 18.7045L5.29885 14.6629C5.20285 14.5669 5.1346 14.4454 5.1016 14.3142C4.78362 13.0445 5.2561 11.4763 5.62133 10.5418L2.76245 9.58937C2.51646 9.50687 2.32972 9.30363 2.26972 9.05014C2.21047 8.7974 2.28547 8.53191 2.46921 8.34817L4.59087 6.22575C5.70533 5.1113 7.30276 4.58107 8.86495 4.80081L9.20694 4.85031C15.0267 -0.706965 22.9426 0.0137553 23.2831 0.0482539C23.6386 0.0842524 23.9191 0.364741 23.9551 0.720227C23.9888 1.05921 24.7096 8.97514 19.153 14.7964L19.2025 15.1376C19.4238 16.7006 18.8913 18.298 17.7768 19.4125L15.6552 21.5341C15.5134 21.6759 15.3214 21.7539 15.1249 21.7539ZM4.12823 17.3973C3.31001 17.8458 1.53183 19.1972 1.50034 22.4993C4.79945 22.4678 6.15165 20.6926 6.60163 19.8707L4.12823 17.3973ZM1.40734 24C1.18685 24 0.958862 23.9925 0.724871 23.9783C0.345387 23.9558 0.0438988 23.6543 0.0206498 23.2748C-0.334836 17.3171 4.01124 15.8029 4.05474 15.7879C4.32547 15.6986 4.62096 15.7691 4.82195 15.9701L8.02957 19.1777C8.23056 19.3787 8.30031 19.675 8.21107 19.9442C8.19757 19.987 6.79887 24 1.40734 24ZM14.9991 7.50414C14.9991 6.67692 15.6718 6.0042 16.499 6.0042C17.3262 6.0042 17.999 6.67692 17.999 7.50414C17.999 8.33135 17.3262 9.00408 16.499 9.00408C15.6718 9.00408 14.9991 8.33135 14.9991 7.50414ZM13.4992 7.50414C13.4992 9.15857 14.8446 10.504 16.499 10.504C18.1535 10.504 19.4989 9.15857 19.4989 7.50414C19.4989 5.8497 18.1535 4.50426 16.499 4.50426C14.8446 4.50426 13.4992 5.8497 13.4992 7.50414Z" fill="black"/>
</svg>

<svg width="25" height="24" viewBox="0 0 25 24" fill="none" xmlns="http://www.w3.org/2000/svg"><path fill-rule="evenodd" clip-rule="evenodd" d="M13.913 16.616a.747.747 0 0 1 .711.513l.83 2.486 1.262-1.264a3.557 3.557 0 0 0 1-3.001l-.1-.707a.752.752 0 0 1 .213-.636C22.26 9.574 22.53 3.482 22.492 1.51c-1.984-.032-8.064.232-12.495 4.664a.74.74 0 0 1-.636.212l-.708-.1a3.546 3.546 0 0 0-3.002 1L4.388 8.55l2.487.83a.75.75 0 0 1 .433 1.045c-.286.574-.948 2.23-.787 3.337l3.72 3.72c1.109.159 2.762-.502 3.338-.787a.745.745 0 0 1 .334-.08Zm1.212 5.138a.75.75 0 0 1-.71-.513l-.954-2.86c-.934.367-2.504.841-3.772.52a.751.751 0 0 1-.349-.197L5.3 14.663a.755.755 0 0 1-.197-.349c-.318-1.27.154-2.838.52-3.772l-2.86-.953a.751.751 0 0 1-.293-1.24l2.122-2.123A5.072 5.072 0 0 1 8.865 4.8l.342.05C15.027-.708 22.943.013 23.283.047a.751.751 0 0 1 .672.672c.034.34.755 8.255-4.802 14.076l.05.342a5.068 5.068 0 0 1-1.426 4.275l-2.122 2.121a.751.751 0 0 1-.53.22ZM4.128 17.397c-.818.449-2.596 1.8-2.628 5.102 3.3-.031 4.652-1.806 5.102-2.628l-2.474-2.474ZM1.408 24c-.221 0-.45-.008-.683-.022a.75.75 0 0 1-.704-.703c-.356-5.958 3.99-7.472 4.034-7.487a.75.75 0 0 1 .767.182l3.208 3.208a.75.75 0 0 1 .181.766C8.198 19.987 6.8 24 1.407 24Zm13.59-16.496c0-.827.673-1.5 1.5-1.5s1.5.673 1.5 1.5-.673 1.5-1.5 1.5-1.5-.673-1.5-1.5Zm-1.5 0c0 1.655 1.346 3 3 3 1.655 0 3-1.345 3-3 0-1.654-1.345-3-3-3-1.654 0-3 1.346-3 3Z" fill="currentColor"/></svg>
